X: 4187
T: Blue Ribbon, The
R: polka
M: 2/4
K: Amajor
|:c2 dc/d/|ea dc/d/|ea f/a/f/e/|cA BA/B/|
cB/c/ dc/d/|ea dc/d/|ea f/a/f/e/|1 cA AB:|2 cA A2||
ab/a/ fe/f/|ac d2|ea f/a/f/e/|cA B2|
ab/a/ fe/f/|ac d2|ea f/a/f/e/|cA A2|
ab/a/ fe/f/|ac d2|ea f/a/f/e/|cA BA/B/|
cB/c/ dc/d/|ea d2|ea f/g/f/e/|cA AB||

